X: 38014
T: Spellan The Fiddler
R: hornpipe
M: 4/4
K: Gmajor
BA|:GDGB dBdg|bgdB cBAG|Fdcd Adcd|fedf ecAF|
GDGB dBdg|bgdB cBAg|(3fgf df ecAG|1 FA (3DEF G2 BA:|2 FA (3DEF G2 ga||
bgdB GBdg|fdAG FAdf|a2 ab c'abg|afge dcBA|
GDGB dBdg|bgdB cBAg|(3fgf df ecAG|1 FA (3DEF G2 z a|2 FA (3DEF G4||

